static/images/invite/copy.svg

<svg width="40" height="40" viewBox="0 0 40 40" fill="none" xmlns="http://www.w3.org/2000/svg">
<rect width="40" height="40" rx="20" fill="white" fill-opacity="0.08"/>
<path d="M13.5805 29.8041H22.4979C24.2121 29.8041 25.6177 28.5181 25.8375 26.863H26.4194C28.2855 26.863 29.804 25.3445 29.804 23.4785V13.5807C29.804 11.7147 28.2855 10.1963 26.4195 10.1963H17.5021C15.6361 10.1963 14.1177 11.7147 14.1177 13.5807V14.1179H13.5805C11.7145 14.1179 10.1961 15.6363 10.1961 17.5023V26.4196C10.1961 28.2857 11.7145 29.8041 13.5805 29.8041ZM16.0785 13.5807C16.0785 12.7957 16.7171 12.1571 17.5021 12.1571H26.4194C27.2045 12.1571 27.8432 12.7957 27.8432 13.5807V23.4784C27.8432 24.2635 27.2045 24.9022 26.4195 24.9022H25.8824V17.5023C25.8824 15.6363 24.364 14.1179 22.498 14.1179H16.0785V13.5807ZM12.1569 17.5023C12.1569 16.7173 12.7955 16.0786 13.5805 16.0786H22.4979C23.283 16.0786 23.9216 16.7173 23.9216 17.5023V26.4196C23.9216 27.2047 23.283 27.8433 22.498 27.8433H13.5805C12.7955 27.8433 12.1569 27.2047 12.1569 26.4197V17.5023Z" fill="url(#paint0_linear_11686_8015)"/>
<defs>
<linearGradient id="paint0_linear_11686_8015" x1="20" y1="10.1963" x2="20" y2="29.8041" gradientUnits="userSpaceOnUse">
<stop stop-color="white"/>
<stop offset="1" stop-color="#DFDFDF"/>
</linearGradient>
</defs>
</svg>

<svg xmlns="http://www.w3.org/2000/svg" width="40" height="40" fill="none"><rect width="40" height="40" fill="#fff" fill-opacity=".08" rx="20"/><path fill="url(#a)" d="M13.58 29.804h8.918c1.714 0 3.12-1.286 3.34-2.941h.581a3.389 3.389 0 0 0 3.385-3.384V13.58a3.389 3.389 0 0 0-3.384-3.385h-8.918a3.388 3.388 0 0 0-3.384 3.385v.537h-.537a3.388 3.388 0 0 0-3.385 3.384v8.918a3.388 3.388 0 0 0 3.385 3.384Zm2.498-16.223c0-.785.64-1.424 1.424-1.424h8.917c.785 0 1.424.639 1.424 1.424v9.897c0 .785-.639 1.424-1.424 1.424h-.537v-7.4a3.388 3.388 0 0 0-3.384-3.384h-6.42v-.537Zm-3.921 3.921c0-.785.639-1.423 1.424-1.423h8.917c.785 0 1.424.638 1.424 1.423v8.918c0 .785-.639 1.423-1.424 1.423H13.58a1.425 1.425 0 0 1-1.423-1.423v-8.918Z"/><defs><linearGradient id="a" x1="20" x2="20" y1="10.196" y2="29.804" gradientUnits="userSpaceOnUse"><stop stop-color="#fff"/><stop offset="1" stop-color="#DFDFDF"/></linearGradient></defs></svg>
